Sources/FrostedUI/Resources/Icons.xcassets/truck16.imageset/truck-16.svg

<svg width="16" height="16" viewBox="0 0 16 16" fill="none" xmlns="http://www.w3.org/2000/svg" data-fui-icon="true">
  <path
    d="M9.47559 2.5C11.1338 2.50021 12.4142 3.95694 12.2021 5.60156L12.1826 5.75H13.2275C13.9851 5.75003 14.6778 6.17792 15.0166 6.85547L15.7461 8.31543C15.9279 8.67915 15.9949 9.08962 15.9375 9.49219L15.6455 11.5332C15.5152 12.4438 14.7844 13.1355 13.8887 13.2354C13.5745 14.257 12.6246 15 11.5 15C10.3807 15 9.43387 14.2642 9.11523 13.25H7.88477C7.56613 14.2642 6.61933 15 5.5 15C4.37765 15 3.42741 14.2606 3.11133 13.2422C1.53434 13.1325 0.356708 11.7031 0.583984 10.1113L0.636719 9.74023C0.276348 9.68554 0 9.37564 0 9C0 8.58579 0.335786 8.25 0.75 8.25H3C3.41421 8.25 3.75 8.58579 3.75 9C3.75 9.41421 3.41421 9.75 3 9.75H2.15039L2.06836 10.3232C1.96978 11.0135 2.45305 11.6352 3.12012 11.7344C3.44353 10.7283 4.38642 10 5.5 10C6.61933 10 7.56613 10.7358 7.88477 11.75H9.11523C9.28159 11.2205 9.61932 10.7677 10.0635 10.4551L10.7148 5.41016C10.8113 4.66261 10.2293 4.00021 9.47559 4H3C2.58584 3.99993 2.25 3.66417 2.25 3.25C2.25 2.83583 2.58584 2.50007 3 2.5H9.47559ZM5.5 11.5C4.94772 11.5 4.5 11.9477 4.5 12.5C4.5 13.0523 4.94772 13.5 5.5 13.5C6.05228 13.5 6.5 13.0523 6.5 12.5C6.5 11.9477 6.05228 11.5 5.5 11.5ZM11.5 11.5C10.9477 11.5 10.5 11.9477 10.5 12.5C10.5 13.0523 10.9477 13.5 11.5 13.5C12.0523 13.5 12.5 13.0523 12.5 12.5C12.5 11.9477 12.0523 11.5 11.5 11.5ZM11.6338 10.0059C12.6776 10.061 13.5493 10.7549 13.8682 11.7051C14.0213 11.6369 14.1361 11.4954 14.1611 11.3203L14.4521 9.28027C14.4665 9.17966 14.4497 9.07723 14.4043 8.98633L13.6748 7.52637C13.5901 7.357 13.4169 7.25003 13.2275 7.25H11.9893L11.6338 10.0059ZM5.75 5.25C6.16421 5.25 6.5 5.58579 6.5 6C6.5 6.41421 6.16421 6.75 5.75 6.75H1C0.585786 6.75 0.25 6.41421 0.25 6C0.25 5.58579 0.585786 5.25 1 5.25H5.75Z"
    fill="currentColor"
  />
</svg>

<svg xmlns="http://www.w3.org/2000/svg" width="16" height="16" fill="none" data-fui-icon="true" viewBox="0 0 16 16"><path fill="currentColor" d="M9.476 2.5a2.75 2.75 0 0 1 2.726 3.102l-.02.148h1.045a2 2 0 0 1 1.79 1.105l.73 1.46a2 2 0 0 1 .19 1.177l-.291 2.041a2 2 0 0 1-1.757 1.702 2.5 2.5 0 0 1-4.774.015h-1.23a2.5 2.5 0 0 1-4.774-.008 2.75 2.75 0 0 1-2.527-3.13l.053-.372A.75.75 0 0 1 .75 8.25H3a.75.75 0 0 1 0 1.5h-.85l-.082.573a1.25 1.25 0 0 0 1.052 1.411 2.5 2.5 0 0 1 4.765.016h1.23c.167-.53.504-.982.948-1.295l.652-5.045A1.25 1.25 0 0 0 9.475 4H3a.75.75 0 0 1 0-1.5zm-3.976 9a1 1 0 1 0 0 2 1 1 0 0 0 0-2m6 0a1 1 0 1 0 0 2 1 1 0 0 0 0-2m.134-1.494a2.5 2.5 0 0 1 2.234 1.7.5.5 0 0 0 .293-.386l.291-2.04a.5.5 0 0 0-.048-.294l-.73-1.46a.5.5 0 0 0-.447-.276H11.99zM5.75 5.25a.75.75 0 0 1 0 1.5H1a.75.75 0 0 1 0-1.5z"/></svg>
